lib/brands/icons/vite-js.svg

<svg xmlns="http://www.w3.org/2000/svg" fill="none" aria-hidden="true" viewBox="0 0 48 48"><g id="vite-js-Icon"><g id="Group"><path id="Vector" fill="url(#paint0_linear_94_19118)" d="M41.8583 11.3283L24.9685 41.5301C24.6198 42.1537 23.7239 42.1574 23.3699 41.5368L6.14527 11.3312C5.75967 10.655 6.3379 9.83595 7.10418 9.97291L24.012 12.9951C24.1199 13.0144 24.2303 13.0142 24.3382 12.9945L40.8924 9.97724C41.6561 9.83805 42.2371 10.6508 41.8583 11.3283Z"/><path id="Vector_2" fill="url(#paint1_linear_94_19118)" d="M32.0663 6.00886L19.5673 8.45798C19.3619 8.49823 19.2098 8.67232 19.1974 8.88125L18.4286 21.8666C18.4105 22.1725 18.6914 22.4099 18.9899 22.341L22.4698 21.5379C22.7953 21.4628 23.0895 21.7496 23.0226 22.077L21.9888 27.1397C21.9192 27.4804 22.2391 27.7718 22.5718 27.6707L24.7212 27.0177C25.0544 26.9166 25.3746 27.2087 25.3041 27.5497L23.661 35.5021C23.5582 35.9995 24.2199 36.2707 24.4958 35.8443L24.6801 35.5594L34.865 15.2339C35.0355 14.8935 34.7414 14.5055 34.3676 14.5776L30.7857 15.2689C30.4491 15.3338 30.1627 15.0203 30.2577 14.691L32.5956 6.58647C32.6906 6.25659 32.4032 5.94284 32.0663 6.00886Z"/></g></g><defs><linearGradient id="paint0_linear_94_19118" x1="5.72472" x2="23.9403" y1="12.4096" y2="37.1478" gradientUnits="userSpaceOnUse"><stop stop-color="#41D1FF"/><stop offset="1" stop-color="#BD34FE"/></linearGradient><linearGradient id="paint1_linear_94_19118" x1="25.5791" x2="29.3263" y1="6.67379" y2="32.3793" gradientUnits="userSpaceOnUse"><stop stop-color="#FFEA83"/><stop offset="0.0833333" stop-color="#FFDD35"/><stop offset="1" stop-color="#FFA800"/></linearGradient></defs></svg>

<svg xmlns="http://www.w3.org/2000/svg" fill="none" aria-hidden="true" viewBox="0 0 48 48"><path fill="url(#a)" d="M41.858 11.328 24.968 41.53a.918.918 0 0 1-1.598.007L6.145 11.33a.918.918 0 0 1 .96-1.358l16.907 3.022c.108.02.218.02.326 0l16.554-3.018a.918.918 0 0 1 .966 1.351Z"/><path fill="url(#b)" d="M32.066 6.009 19.567 8.458a.459.459 0 0 0-.37.423l-.768 12.986a.459.459 0 0 0 .56.474l3.48-.803a.459.459 0 0 1 .554.539l-1.034 5.063c-.07.34.25.632.583.53l2.15-.652a.459.459 0 0 1 .582.532l-1.643 7.952c-.103.497.559.769.835.342l.184-.285 10.185-20.325a.459.459 0 0 0-.497-.656l-3.582.69a.459.459 0 0 1-.528-.577l2.338-8.105a.46.46 0 0 0-.53-.577Z"/><defs><linearGradient id="a" x1="5.725" x2="23.94" y1="12.41" y2="37.148" gradientUnits="userSpaceOnUse"><stop stop-color="#41D1FF"/><stop offset="1" stop-color="#BD34FE"/></linearGradient><linearGradient id="b" x1="25.579" x2="29.326" y1="6.674" y2="32.379" gradientUnits="userSpaceOnUse"><stop stop-color="#FFEA83"/><stop offset=".083" stop-color="#FFDD35"/><stop offset="1" stop-color="#FFA800"/></linearGradient></defs></svg>
